X:12
T:Reel de Remi
R:reel
M:C|
K:D
"D"FDz D "D7/F#"DFA=c| "G"BGzG  "Em"G2ed| "A"cAzA "A7/C#"Aceg| "D"f2e2d2z2|
"D"FDz D "D7/F#"DFA=c| "G"BGzG  "Em"G2ed| "A"cAzA "A7/C#"Aceg| "D"f2e2d2z2:|
|:"G"g2gf "A"g2b2|"D"abaf "Bm"d2f2| "Em"Acef  "A"gece| "D"defg "D/F#"a2Bd|
"G"g2gf "A"g2b2|"D"abaf "Bm"d2f2| "Em"Acef  "A"gecA| "D"dd2dd2:|
%%scale 0.70
%%leftmargin 1.3cm
%%staffwidth 18.4cm
%%staffsep 38
